X: 1
T: Sinclair's Mandolin
O: Urban Chaisson (PEI)
F: http://web.295.ca/peifiddlers/tif1109.pdf 2011-11-6
M: C|
L: 1/8
K: G
DE |\
"G"G2BA GEGA | B2G2 G2DE | G2BA GEGA | "D7"B2A2 A2DE |
"G"G2BA GEGA | B2G2 G2Bd | "C"efed "D7"BdBA | "G"G4 G2 :|
|: Bd |\
"Em"e2ef edBA | "Bm"B2d2 d2Bd | "Em"e2ef ecBA | "(C)"G2E2 E2DE |
"G"G2BA GEGA | B2G2 G2Bd | "C"efed "D7"BdBA | "G"G4 G2 :|

